!!!COM: Palestrina, Giovanni Perluigi da
!!!OPR: Missa Jesu Nostra Redemptio
!!!OMD: Credo
!!!OTL: Et expecto
**kern	**kern	**kern	**kern
*Ibass	*Itenor	*Icalto	*Icant
!Bassus	!Tenor	!Altus	!Cantus
*clefF4	*clefGv2	*clefG2	*clefG2
*k[]	*k[]	*k[]	*k[]
*E:phr	*E:phr	*E:phr	*E:phr
*M4/2	*M4/2	*M4/2	*M4/2
=143	=143	=143	=143
1C	2G	1c	1e
.	1c	.	.
1GG	.	1d	[1g
.	[2B	.	.
=144	=144	=144	=144
1C	2B]	1e	2g]
.	1A	.	2a
1BB	.	1d	1b
.	2G#	.	.
=145	=145	=145	=145
2AA	1A	2c	2e
1A	.	1e	1cc
.	1r	.	.
2A	.	2f#	2cc
=146	=146	=146	=146
2G	2r	2g	2b
2A	1c	2e	2cc
1F	.	1f	1a
.	2c	.	.
=147	=147	=147	=147
2G	2B	2d	2g
1C	2c	1g	1e
.	1A	.	.
2D	.	2f	2f
=148	=148	=148	=148
4E	2G	2.e	1g
4D	.	.	.
4C	1E	.	.
4BB	.	4d	.
1AA	.	1c	1a
.	2F#	.	.
=149	=149	=149	=149
1GG	2.G	1B	1d
.	4A	.	.
1G	4B	1d	1r
.	4c	.	.
.	[2d	.	.
=150	=150	=150	=150
1C	4d]	1e	1r
.	4c	.	.
.	1c	.	.
1G	.	2d	2r
.	2B	2d	2g
=151	=151	=151	=151
0r	2.A	2c	1a
.	.	2A	.
.	8G	.	.
.	8F	.	.
.	1E	2B	2g
.	.	2c#	2g
=152	=152	=152	=152
0r	1r	2d	2f
.	.	2B	2d
.	1c	2A	2.e
.	.	[2c	.
.	.	.	4f
=153	=153	=153	=153
1G	1d	2c]	1g
.	.	2B	.
1A	2c	2A	2f
.	2c	2c	2e
=154	=154	=154	=154
2G	2B	2d	1g
2G	2G	2e	.
2F	2A	2f	1r
2D	2B	2f	.
=155	=155	=155	=155
2E	2c	2e	1r
2F	1d	4d	.
.	.	4c	.
1G	.	2B	1g
.	4c	[2e	.
.	4B	.	.
=156	=156	=156	=156
1F	1A	4e]	1a
.	.	4d	.
.	.	4d	.
.	.	8c	.
.	.	8d	.
2E	2B	1e	2g
2C	[2c	.	2g
=157	=157	=157	=157
1D	2c]	1d	2f
.	2B	.	2d
1C	2c	1G	[1e
.	2G	.	.
=158	=158	=158	=158
1r	1A	1c	2e]
.	.	.	2f#
2r	2G	2d	2g
2C	2G	2c	2e
=159	=159	=159	=159
1D	2F	2.A	2d
.	2D	.	1a
.	.	4B	.
2C	2.E	4c	.
.	.	4d	.
2C	.	2e	[2g
.	4F	.	.
=160	=160	=160	=160
2BB	1G	2d	4g]
.	.	.	4f
2GG	.	2B	1e
2AA	1F	2c	.
2BB	.	2B	2d
=161	=161	=161	=161
1C	2E	1G	1e
.	2.c	.	.
2.AA	.	4A	[1cc
.	4B	4B	.
.	[2A	4c	.
4BB	.	4d	.
=162	=162	=162	=162
4C	2A]	0e	2cc]
4D	.	.	.
2E	2G	.	2b
1AA	1c	.	1a
=163	=163	=163	=163
[0E	[0B	[0e	[0g#
=164	=164	=164	=164
0E]	0B]	0e]	0g#]
==	==	==	==
*-	*-	*-	*-
!!!CDT: 1525/^1526/-1594/2/2
!!!OCY: Italia
!!!AGN: Mass (Paraphrase)
!!!AST: renaissance, vocal
!!!ASW: Hymn
!!!PWK: Masses, Book 4
!!!RNB: Cadence finals: C,A
!!!YOR: Le Opere Complete, v. 10, p. 38
!!!YOO: Rome, Italy: Fratelli Scalera
!!!END: 1992//
!!!EED: John Miller
!!!YEC: Copyright 2000, John Miller
!!!YEN: United States of America
!!!YEM: Rights to all derivative electronic formats reserved.
!!!YEM: Refer to licensing agreement for further details.
!!!YEM: This file must be accompanied by the licensing agreement.
!!!YEM: A copy of the licensing agreement may be found at http://www.music-cog.ohio-state.edu/HumdrumDatabases/Palestrina/license.txt
!!!EMD: converted to Humdrum by Bret Aarden
